src/icons/html5.svg

<svg width="64" height="64" viewBox="0 0 64 64" fill="none" xmlns="http://www.w3.org/2000/svg">
<path d="M5.94629 2.04736L10.6994 55.8779L32.0433 61.8594L53.379 55.8816L58.1405 2.04736H5.94629V2.04736Z" fill="#FF5722"/>
<path d="M47.8307 19.6508H22.8151L23.4117 26.4131H47.2347L45.4412 46.6893L32.0427 50.4389L32.031 50.443L18.6398 46.6893L17.7042 36.084H24.2655L24.7542 41.5865L32.035 43.5716L32.0428 43.5682L39.3315 41.5831L40.0917 33.0191H17.4358L15.668 13.0532H48.413L47.8307 19.6508Z" fill="#FCFCFC"/>
</svg>

<svg xmlns="http://www.w3.org/2000/svg" fill="none" viewBox="0 0 64 64"><defs/><path fill="#FF5722" d="M5.95 2.05l4.75 53.83 21.34 5.98 21.34-5.98 4.76-53.83H5.94z"/><path fill="#FCFCFC" d="M47.83 19.65H22.82l.6 6.76h23.81L45.44 46.7l-13.4 3.75-13.4-3.75-.94-10.6h6.57l.48 5.5 7.28 1.98h.01l7.3-1.99.75-8.56H17.44l-1.77-19.97H48.4l-.58 6.6z"/></svg>
